material/.icons/material/cellphone-android.svg

<svg xmlns="http://www.w3.org/2000/svg" viewBox="0 0 24 24"><path d="M17.25 18H6.75V4h10.5M14 21h-4v-1h4m2-19H8a3 3 0 00-3 3v16a3 3 0 003 3h8a3 3 0 003-3V4a3 3 0 00-3-3z"/></svg>

<?xml version="1.0" encoding="UTF-8"?><!DOCTYPE svg PUBLIC "-//W3C//DTD SVG 1.1//EN" "http://www.w3.org/Graphics/SVG/1.1/DTD/svg11.dtd"><svg xmlns="http://www.w3.org/2000/svg" xmlns:xlink="http://www.w3.org/1999/xlink" version="1.1" id="mdi-cellphone-android" width="24" height="24" viewBox="0 0 24 24"><path d="M17.25,18H6.75V4H17.25M14,21H10V20H14M16,1H8A3,3 0 0,0 5,4V20A3,3 0 0,0 8,23H16A3,3 0 0,0 19,20V4A3,3 0 0,0 16,1Z" /></svg>
